X: 33792
T: Ray's Classic
R: polka
M: 2/4
K: Gmajor
|:GG/G/ GD|EG D2|E/F/G AB|cA BA|
GG/G/ GD|EG D2|E/F/G AF|1 GD EF:|2 GA Bc||
|:dd/d/ dG|ee/e/ ez|Ae Ae|ff/f/ fz|
Bf Bf|g2 fe|dB AG/A/|1 BG Bc:|2 BG GF||

